actions/16/view-sidetree.svg

<svg xmlns="http://www.w3.org/2000/svg" viewBox="0 0 16 16">
  <defs id="defs3051">
    <style type="text/css" id="current-color-scheme"> .ColorScheme-Text { color:#fcfcfc; } </style>
  </defs>
 <path style="fill:currentColor;fill-opacity:1;stroke:none" 
       d="m 2,4 c 0,2 0,6 0,8 0,2 2,2 2,2 h 8 c 0,0 2,0 2,-2 0,-2 0,-6 0,-8 C 14,2 12,2 12,2 H 4 C 4,2 2,2 2,4 Z M 3,5 C 3,4 4,4 4,4 h 8 c 0,0 1,0 1,1 0,1 0,6 0,7 0,1 -1,1 -1,1 H 4 C 4,13 3,13 3,12 3,11 3,6 3,5 Z m 1,0 v 7 h 3 v -1 h 2 v 1 h 3 V 9 H 9 v 1 H 7 V 7 h 2 v 1 h 3 V 5 H 9 V 6 H 7 V 5 Z m 6,1 h 1 v 1 h -1 z m 0,4 h 1 v 1 h -1 z"
     class="ColorScheme-Text"
     />
</svg>

<svg xmlns="http://www.w3.org/2000/svg" viewBox="0 0 16 16">
  <defs id="defs3051">
    <style type="text/css" id="current-color-scheme">
      .ColorScheme-Text {
        color:#eff0f1;
      }
      </style>
  </defs>
 <path style="fill:currentColor;fill-opacity:1;stroke:none" 
       d="M 2 2 L 2 14 L 14 14 L 14 2 L 2 2 z M 3 4 L 13 4 L 13 13 L 3 13 L 3 4 z M 4 5 L 4 12 L 7 12 L 7 11 L 9 11 L 9 12 L 12 12 L 12 9 L 9 9 L 9 10 L 7 10 L 7 7 L 9 7 L 9 8 L 12 8 L 12 5 L 9 5 L 9 6 L 7 6 L 7 5 L 4 5 z M 10 6 L 11 6 L 11 7 L 10 7 L 10 6 z M 10 10 L 11 10 L 11 11 L 10 11 L 10 10 z "
     class="ColorScheme-Text"
     />
</svg>
